!!!OTL: Waise und Stiefmutter
!!!OTL-incipit:Wer lieben will, muss leiden,
!!!ARE: Europa, Mitteleuropa, Deutschland (BRD), Hessen
!!!YOR: 5, S. 299
!!    1894 gedruckt in Leipzig
!!!SCT: Q1116C
!!!TXL: @@DE
!!!YEM: Copyright 1995, estate of Helmut Schaffrath.
**kern	**text
*ICvox	*
*M6/8	*
*k[f#]	*
*G:	*
!LO:TX:a:t=E.-B. Nr. 617a Hessen	!
{8d	Wer
=1	=1
4g	lie-
8B	-ben
4e	will,
8d	muß
=2	=2
8dL	lei-
8cJ	-den,
8r	.
4r}	.
{16f#L	oh-
16gJ	-ne
=3	=3
4a	Lei-
8c	-den
4e	liebt
8d	man
=4	=4
4B	nicht.
8r	.
4r}	.
{8d	Sind
=5	=5
4b	das
8a	nicht
4g	sü-
8f#	-ße
=6	=6
8f#L	Freu-
8eJ	-den,
8r	.
4r}	.
{16eL	wem
16eJ	die
=7	=7
4d	Lieb'
8g	.
(8f#L	von
8e)	bei-
8f#J	-den
=8	=8
4g	spricht?
8r	.
4r}	.
==	==
!!!AGN: ???
!! Melodievergleich zu Q0116, anderes Lied.
!!!ONB: ESAC (Essen Associative Code) Database: BALLADE
!!!AMT: compound duple
!!!AIN: vox
!!!EED: Helmut Schaffrath
!!!EEV: 1.0
!!!source: Deutsche Volkslieder mit ihren Melodien Balladen. Herausgegeben vom Deutschen Volksliedarchiv. Fünfter Teil. Freiburg/Breisgau 1965.
!!!page: 299
!!!ENC: Anna Maria Matuszewska
!!!EEV: 2025/03/05
*-	*-
